dist/assets/img/advantages/shield 4b.svg

<svg width="44" height="44" viewBox="0 0 44 44" fill="none" xmlns="http://www.w3.org/2000/svg">
<path d="M44 22L39.715 17.2533L41.0526 11L34.9683 9.03179L33.0001 2.94753L26.7468 4.28509L22 0L17.2533 4.28501L11 2.94745L9.03179 9.0317L2.94753 10.9999L4.28509 17.2532L0 22L4.28509 26.7467L2.94753 33L9.03179 34.9682L11 41.0525L17.2533 39.7149L22 43.9999L26.7466 39.7149L32.9999 41.0525L34.9681 34.9682L41.0524 33L39.7148 26.7467L44 22ZM32.9073 32.9073L31.2518 38.0247L25.9923 36.8996L22 40.5037L18.0076 36.8996L12.7481 38.0247L11.0926 32.9073L5.97526 31.2518L7.10027 25.9923L3.49616 22L7.10027 18.0076L5.97526 12.7481L11.0926 11.0926L12.7481 5.97526L18.0076 7.10027L22 3.49624L25.9923 7.10027L31.2518 5.97526L32.9073 11.0926L38.0247 12.7481L36.8996 18.0076L40.5037 22L36.8996 25.9923L38.0247 31.2518L32.9073 32.9073Z" fill="#051223"/>
<path d="M27.6228 23.7305C25.4763 23.7305 23.73 25.4768 23.73 27.6233C23.73 29.7697 25.4763 31.5161 27.6228 31.5161C29.7693 31.5161 31.5156 29.7697 31.5156 27.6233C31.5156 25.4768 29.7693 23.7305 27.6228 23.7305ZM27.6228 28.9209C26.9073 28.9209 26.3252 28.3388 26.3252 27.6233C26.3252 26.9078 26.9073 26.3257 27.6228 26.3257C28.3383 26.3257 28.9204 26.9078 28.9204 27.6233C28.9204 28.3388 28.3383 28.9209 27.6228 28.9209Z" fill="#051223"/>
<path d="M16.3772 20.27C18.5236 20.27 20.27 18.5236 20.27 16.3772C20.27 14.2307 18.5236 12.4844 16.3772 12.4844C14.2307 12.4844 12.4844 14.2307 12.4844 16.3772C12.4844 18.5236 14.2307 20.27 16.3772 20.27ZM16.3772 15.0796C17.0927 15.0796 17.6748 15.6617 17.6748 16.3772C17.6748 17.0927 17.0927 17.6748 16.3772 17.6748C15.6617 17.6748 15.0796 17.0927 15.0796 16.3772C15.0796 15.6617 15.6617 15.0796 16.3772 15.0796Z" fill="#051223"/>
<path d="M13.2935 28.8672L28.8622 13.2984L30.697 15.1332L15.1282 30.7019L13.2935 28.8672Z" fill="#051223"/>
</svg>

<svg width="44" height="44" fill="none" xmlns="http://www.w3.org/2000/svg"><path d="M44 22l-4.285-4.747L41.053 11l-6.085-1.968L33 2.948l-6.253 1.337L22 0l-4.747 4.285L11 2.947 9.032 9.032 2.948 11l1.337 6.253L0 22l4.285 4.747L2.948 33l6.084 1.968L11 41.052l6.253-1.337L22 44l4.747-4.285L33 41.052l1.968-6.084L41.052 33l-1.337-6.253L44 22zM32.907 32.907l-1.655 5.118-5.26-1.125L22 40.504 18.008 36.9l-5.26 1.125-1.655-5.118-5.118-1.655 1.125-5.26L3.496 22 7.1 18.008l-1.125-5.26 5.118-1.655 1.655-5.118 5.26 1.125L22 3.496 25.992 7.1l5.26-1.125 1.655 5.118 5.118 1.655-1.125 5.26L40.504 22 36.9 25.992l1.125 5.26-5.118 1.655z" fill="#051223"/><path d="M27.623 23.73a3.897 3.897 0 00-3.893 3.893 3.897 3.897 0 003.893 3.893 3.897 3.897 0 003.893-3.893 3.897 3.897 0 00-3.893-3.893zm0 5.19a1.3 1.3 0 01-1.298-1.297 1.3 1.3 0 011.298-1.297 1.3 1.3 0 011.297 1.297 1.3 1.3 0 01-1.297 1.298zm-11.246-8.65a3.897 3.897 0 003.893-3.893 3.897 3.897 0 00-3.893-3.893 3.897 3.897 0 00-3.893 3.893 3.897 3.897 0 003.893 3.893zm0-5.19a1.3 1.3 0 011.298 1.297 1.3 1.3 0 01-1.298 1.298 1.3 1.3 0 01-1.297-1.298 1.3 1.3 0 011.297-1.297zm-3.084 13.787l15.57-15.569 1.834 1.835-15.569 15.569-1.835-1.835z" fill="#051223"/></svg>
